X:1
T:Title
%%score { ( 1 4 ) | ( 2 3 ) }
L:1/8
M:6/4
K:A
V:1 treble nm="Grand Piano"
V:4 treble 
V:2 bass 
V:3 bass 
V:1
 z6 z4 [CE]2 | [Ec]4 [Ec]2 .[DB]4 [A,DF]2 | [A,CE]6 [CEA]4 [Ec]2 | [Ge]4 [GB]2 .[GB]4 [EGd]2 | %4
 [EAc]6- [EAc]4 [=Gc]2 | [Fd]4 [Fd]2 [DF]4 [Fd]2 | [Ec]4 [Ec]2 [CEA]4 [Ec]2 | %7
 [EB]4 [EG]2 [^DG]4 [DF]2 | E12 | G4 A2 c4 B2 | .[CB]4 [A,CF]2 [A,CE]6 | [A,DF]4 [A,DF]2 [Fd]4 F2 | %12
 E4 c2 [GB]6 | c4 e2 d4 c2 | B4 A2 G4 F2 | E6 [CA]4 [DB]2 |[M:5/4] A4- [DA-]2 [CA]4 |] %17
V:2
 z6 z4 [A,,A,]2 | [A,,A,]4 [A,,A,]2 z2 A2 D,2 | A,,6 A,,4 A,2 | %3
 [E,B,]4 [E,E]2 z2[K:treble] c2[K:bass] E,2 | A,6- A,4 A,2 | [D,A,]4 [D,A,]2 [D,A,]4 [D,A,]2 | %6
 [A,,A,]4 [A,,A,]2 A,,4 [A,,A,]2 | [B,,G,]4 [B,,B,]2 [B,,B,]4 [B,,A,]2 | [E,G,]12 | %9
 [E,B,D]4 [E,A,C]2 [E,G,E]4 [E,G,D]2 | z2 A2 A,,2 A,,6 | D,4 D,2 [D,A,]4 [D,A,D]2 | %12
 [A,C]4 [A,EA]2 [E,E]6 | [A,EA]4 [A,CE]2[K:bass] [G,B,E]4 [A,E]2 | [D,F,D]4 [D,F,D]2 [^D,G,=C]6 | %15
 [E,A,C]6 [E,A,]4 [E,G,]2 |[M:5/4] z4 F,2 E,4 |] %17
V:3
 x12 | z6 .[D,F,]6 | x12 | z6 .[E,E]6[K:treble][K:bass] | x12 | x12 | x12 | x12 | x12 | x12 | %10
 .[A,,A,]6 z6 | x12 | x12 | x6[K:bass] x6 | x12 | x12 |[M:5/4] A,,2- A,,2- A,,6 |] %17
V:4
 x12 | x12 | x12 | x12 | x12 | x12 | x12 | x12 | x12 | x12 | x12 | x12 | x12 | x12 | x12 | x12 | %16
[M:5/4] [A,C]4 z2 z4 |] %17

